!!!COM: prguitarman--yamaha-vocaloid
!!!OTL: nyan-cat---nyanyanya
!!!RNB: hooktheoryid: EzngRRVDgJj
**kern	**text
*clefG2	*
*k[f#c#g#d#a#]	*
*M4/4	*
=1	=1
8ff#	E
8gg#	.
16dd	F#
8dd#	.
16cc#	.
16dd	D#m
16cc#	.
8b	.
8b	G#m
8cc#	.
=2	=2
8dd	C#m
16dd	.
16cc#	.
16b	F#
16cc#	.
16dd#	.
16ff#	.
16gg#	B
16dd#	.
16ff#	.
16cc#	.
16dd#	.
16b	.
16cc#	.
16b	.
=3	=3
8dd#	E
8ff#	.
16gg#	F#
16dd#	.
16ff#	.
16cc#	.
16dd#	D#m
16b	.
16dd	.
16dd#	.
16dd	G#m
16cc#	.
16b	.
16cc#	.
=4	=4
8dd	C#m
16b	.
16cc#	.
16dd#	F#
16ff#	.
16cc#	.
16dd	.
16cc#	B
16b	.
8cc#	.
8b	.
8cc#	.
=5	=5
8ff#	E
8gg#	.
16dd	F#
8dd#	.
16cc#	.
16dd	D#m
16cc#	.
8b	.
8b	G#m
8cc#	.
=6	=6
8dd	C#m
16dd	.
16cc#	.
16b	F#
16cc#	.
16dd#	.
16ff#	.
16gg#	B
16dd#	.
16ff#	.
16cc#	.
16dd#	.
16b	.
16cc#	.
16b	.
=7	=7
8dd#	E
8ff#	.
16gg#	F#
16dd#	.
16ff#	.
16cc#	.
16dd#	D#m
16b	.
16dd	.
16dd#	.
16dd	G#m
16cc#	.
16b	.
16cc#	.
=8	=8
8dd	C#m
16b	.
16cc#	.
16dd#	F#
16ff#	.
16cc#	.
16dd	.
16cc#	B
16b	.
8cc#	.
8b	.
8b	.
=9	=9
1r	.
*-	*-